!!!COM: Schiørring, Niels
!!!CDT: 1743-1798
!!!OPR@@DA: Choral-Bog
!!!ONM: 12
!!!OTL@@DA: Den prægtig’ Soel ſom heele Verden glæder
**kern	**fb	**kern	**kern	**kern	**kern	**kern	**kern	**kern
*part6	*part6	*part6	*part5	*part5	*part4	*part3	*part2	*part1
*staff8	*	*staff7	*staff6	*staff5	*staff4	*staff3	*staff2	*staff1
*clefF4	*	*clefC1	*clefF4	*clefC1	*clefF4	*clefC4	*clefC3	*clefC1
*k[b-e-]	*	*k[b-e-]	*k[b-e-]	*k[b-e-]	*k[b-e-]	*k[b-e-]	*k[b-e-]	*k[b-e-]
*B-:	*	*B-:	*B-:	*B-:	*B-:	*B-:	*B-:	*B-:
*M4/4	*	*M4/4	*M4/4	*M4/4	*M4/4	*M4/4	*M4/4	*M4/4
*met(c)	*	*met(c)	*met(c)	*met(c)	*met(c)	*met(c)	*met(c)	*met(c)
*MM180	*	*MM180	*MM180	*MM180	*MM180	*MM180	*MM180	*MM180
*	*	*	*^	*^	*	*	*	*
2C	.	2cc	2ryy	2C	2e-	2g	2C	2e-	2g	2cc
=1	=1	=1	=1	=1	=1	=1	=1	=1	=1	=1
*	*	*	*	*	*	*	*^	*	*	*
2FF	6 5 -	2.cc	1ryy	2FF	1d	2a-X	2F	2FF	2.d	2a-X	2.cc
2GG	4	.	.	2GG	.	2g	(4G	2GG	.	2g	.
.	n	4bn	.	.	.	.	4GG)	.	4d	.	4bn
=2	=2	=2	=2	=2	=2	=2	=2	=2	=2	=2	=2
2AA-X	.	2cc	1ryy	2AA-X	2c	2e-	2AA-X	2AA-X	2c	2e-	2cc
*	*	*	*	*	*	*	*v	*v	*	*	*
2E-	.	2g	.	2E-	2B-Xi	2e-	2E-	2B-	2e-	2g
=3	=3	=3	=3	=3	=3	=3	=3	=3	=3	=3
2AAni	7 5	2.g	2ryy	2AAni	2c	2.e-	2AAni	2c	2.e-	2.g
2BB-	6 4	.	2B-	2BB-	4ryy	.	2BB-	2B-	.	.
.	5 3	4f	.	.	4f	4d	.	.	4d	4f
=4	=4	=4	=4	=4	=4	=4	=4	=4	=4	=4
2BBn	6	(4g	1G	2BBn	4g	2d	2BBn	2G	2d	(4g
.	5	4f)	.	.	4f	.	.	.	.	4f)
2C	.	2e-	.	2C	2e-	[2c	2C	2G	[2c	2e-
=5	=5	=5	=5	=5	=5	=5	=5	=5	=5	=5
2F	6 5 -	1d	2A-X	2F	1d	2c]	(2F	(2A-X	(2c]	1d
2G	n	.	2G	2G	.	2Bn	2G)	2G)	2Bn)	.
=6	=6	=6	=6	=6	=6	=6	=6	=6	=6	=6
2C	.	2c	2E-	2C	2c	2G	2C	2E-	2c	2c
2GG	n	2d	2G	2GG	2d	2Bn	2GG	2G	2Bn	2d
=7	=7	=7	=7	=7	=7	=7	=7	=7	=7	=7
2C	.	2e-	2G	2C	2e-	2.c	2C	2G	[2c	2e-
2D	7	2f	2F	2D	2f	.	2D	(4F	(4c]	2f
=8	=8	=8	=8	=8	=8	=8	=8	=8	=8	=8
4E-	-r6	2.g	2E-	4E-	2.g	2B-	(4E-	2B-	2e-	2.g
4D	.	.	.	4D	.	.	4D)	.	.	.
4E-	6	.	4G	4E-	.	2c	(4E-	(4c	2e-	.
4C	6	4a	4E-	4C	4a	.	4C)	4e-)	.	4a
=9	=9	=9	=9	=9	=9	=9	=9	=9	=9	=9
4D	6	2b-	4F	4D	2b-	4B-	(4D	(4d	4f	2b-
4En	5	.	4G	4En	.	4c	4En)	4c)	4g	.
[2F	.	2a	2A	[2F	2a	2c	2F	2c	2f	2a
=10	=10	=10	=10	=10	=10	=10	=10	=10	=10	=10
4F]	nr4	2.bn	2G	4F]	2.bn	4d	(4F	2.d	2g	2.bn
4E-Xi	.	.	.	4E-Xi	.	4e-Xi	4E-Xi)	.	.	.
4D	nr6	.	2G	4D	.	4f	(4D	.	(4f	.
4C	.	4cc	.	4C	4cc	4e-	4C)	4e-	4g)	4cc
=11	=11	=11	=11	=11	=11	=11	=11	=11	=11	=11
*	*	*	*	*	*	*	*^	*	*	*
2FF#X	6	2dd	4A	2F#X	2dd	4d	2F#X	2FF#X	(4d	2a	2dd
2GG	n	2dd	2Bn	2G	2dd	2g	2G	2GG	2B	2g	2dd
*	*	*	*	*	*	*	*v	*v	*	*	*
=12	=12	=12	=12	=12	=12	=12	=12	=12	=12	=12
2r	.	2r	2r	2r	2r	2r	2r	2r	2r	2r
2E-	6	2cc	2ryy	2E-	2c	2g	2E-	2c	2g	2cc
=13	=13	=13	=13	=13	=13	=13	=13	=13	=13	=13
2D	6 4	2b-	1ryy	2D	1d	2g	2D	2d	2g	2b-
2C	4	2a	.	2C	.	2f#X	2C	2d	2f#X	2a
=14	=14	=14	=14	=14	=14	=14	=14	=14	=14	=14
2BB-	6	2.dd	1ryy	2BB-	1d	2g	2BB-	2d	2g	2.dd
2FF#X	6	.	.	2FF#X	.	2a	2FF#X	2d	2a	.
.	5	4cc	.	.	.	.	.	.	.	4cc
=15	=15	=15	=15	=15	=15	=15	=15	=15	=15	=15
2GG	.	2b-	2d	2GG	2b-	1g	2GG	2d	2g	2b-
2C	.	2cc	2e-	2C	2cc	.	2C	2e-	[2g	2cc
=16	=16	=16	=16	=16	=16	=16	=16	=16	=16	=16
1D	6 4	2b-	2d	1D	2b-	2g	2D	2d	2g]	2b-
.	5 #	2a	2c	.	2a	2f#X	2D	2c	2f#X	2a
=17	=17	=17	=17	=17	=17	=17	=17	=17	=17	=17
2GG	.	2g	2ryy	2GG	2B-	2d	2GG	2B-	2g	2g
2E-	.	2g	2B-	2E-	2g	2e-	2E-	2B-	2e-	2g
=18	=18	=18	=18	=18	=18	=18	=18	=18	=18	=18
2D-X	2	2g	2B-	2D-X	2g	1e-	2D-X	2B-	2e-	2g
2C	-r6	2a-X	2c	2C	2a-X	.	2C	2c	2e-	2a-X
=19	=19	=19	=19	=19	=19	=19	=19	=19	=19	=19
2Dni	6	2.b-	2B-	2Dni	2.b-	1f	2Dni	2B-	2f	2.b-
2BB-	8	.	4ryy	2BB-	.	.	2BB-	2d	2f	.
.	-7	4a-X	4ryy	.	4a-X	.	.	.	.	4a-X
=20	=20	=20	=20	=20	=20	=20	=20	=20	=20	=20
2E-	8	2g	2B-	2E-	2g	4e-	2E-	2B-	(4e-	2g
4A-X	6	2f	2A-X	4A-	2f	2c	(4A-X	2c	2c	2f
4G	.	.	.	4G	.	.	4G)	.	.	.
=21	=21	=21	=21	=21	=21	=21	=21	=21	=21	=21
2F	5 -	2a-X	2A-X	2F	2a-X	4c	2F	2A-X	(4c	2a-X
2E-	6	2g	2B-	2E-	2g	[2e-	2E-	2B-	[2e-	2g
=22	=22	=22	=22	=22	=22	=22	=22	=22	=22	=22
2AA-X	6 5	1f	2ryy	2AA-X	2c	2e-]	(2AA-X	(2c	(2e-]	1f
2BB-	.	.	4B-	2BB-	4ryy	2d	2BB-)	2B-)	2d)	.
.	.	.	4A-X	.	4ryy	.	.	.	.	.
=23	=23	=23	=23	=23	=23	=23	=23	=23	=23	=23
2E-	.	2e-	2ryy	2EE-	2G	2B-	2E-	2G	2e-	2e-
*	*	*	*	*	*	*	*^	*	*	*
2A-X	2	2d	2F	2AA-X	2d	2B-	2A-X	2AA-X	2F	2B-	2d
=24	=24	=24	=24	=24	=24	=24	=24	=24	=24	=24	=24
2G	6	2e-	2G	2GG	2e-	2B-	2G	2GG	2G	2B-	2e-
2F	6 -	2f	2A-X	2F	2f	2d	2F	2FF	2A-X	2d	2f
=25	=25	=25	=25	=25	=25	=25	=25	=25	=25	=25	=25
2E-	.	2g	2B-	2E-	2g	2e-	2E-	2EE-	2B-	2e-	2g
2E-	nr4	2a	2c	2E-	2ani	2f	2E-	2E-	2c	2f	2a
*	*	*	*	*	*	*	*v	*v	*	*	*
=26	=26	=26	=26	=26	=26	=26	=26	=26	=26	=26
2D	6	2b-	1d	2D	2b-	2f	2D	2d	2f	2b-
2F	nr4	2bn	.	2F	2bn	2g	2F	2d	2g	2bn
=27	=27	=27	=27	=27	=27	=27	=27	=27	=27	=27
2E-	6	2cc	1c	2E-	2cc	1g	2E-	2c	2g	2cc
2C	.	2ee-	.	2C	2ee-	.	2C	[2c	2g	2ee-
=28	=28	=28	=28	=28	=28	=28	=28	=28	=28	=28
1G	4	2dd	2c	1G	2dd	1g	2G	2c]	2g	2dd
.	n	2dd	2Bn	.	2dd	.	2G	2B	2g	2dd
=29	=29	=29	=29	=29	=29	=29	=29	=29	=29	=29
2r	.	2r	2r	2r	2r	2r	2r	2r	2r	2r
2A-X	.	2cc	2e-	2A-X	2cc	2cc	2A-X	2e-	2cc	2cc
=30	=30	=30	=30	=30	=30	=30	=30	=30	=30	=30
2F#X	7 5	2.cc	2e-	2F#X	2.cc	2ani	2F#X	2e-	2a	2.cc
2G	4	.	2d	2G	.	2g	2G	2d	(4g	.
.	n	4bn	.	.	4bn	.	.	.	4f)	4bn
=31	=31	=31	=31	=31	=31	=31	=31	=31	=31	=31
*	*	*	*	*	*	*^	*	*	*	*
2C	.	2cc	2c	2C	2cc	2e-	2g/	2C	2c	2e-	2cc
*	*	*	*v	*v	*	*	*	*	*	*	*
*	*	*	*	*v	*v	*v	*	*	*	*
==	==	==	==	==	==	==	==	==
*-	*-	*-	*-	*-	*-	*-	*-	*-
!!!system-decoration: {(s1,s2,s3,s4)}{(s5,s6)}{(s7,s8)}
!!!RDF**kern: i = editorial accidental
!!!RDF**kern: > = above
!!!RDF**kern: < = below
!!!AGN: chorale
!!!EED: Derek Remeš
!!!EED2: Victor Phan
!!!END: 2023/11/28
!!!ENC: Wolfgang Drescher
!!!EEV: 2023/11/29
!!!title: @{ONM}. @{OTL}